packages/components/src/components/icon/common/ic-profile.svg

<svg width="32" height="32" viewBox="0 0 32 32" fill="none" xmlns="http://www.w3.org/2000/svg">
<rect width="32" height="32" rx="16" fill="#F2F3F4"/>
<path fill-rule="evenodd" clip-rule="evenodd" d="M24 16C24 20.4183 20.4183 24 16 24C11.5817 24 8 20.4183 8 16C8 11.5817 11.5817 8 16 8C20.4183 8 24 11.5817 24 16ZM9 16C9 18.3787 10.1865 20.4804 12 21.7453V19.5C12 18.1193 13.1193 17 14.5 17H17.5C18.8807 17 20 18.1193 20 19.5V21.7453C21.8135 20.4804 23 18.3787 23 16C23 12.134 19.866 9 16 9C12.134 9 9 12.134 9 16ZM16 23C14.9264 23 13.9093 22.7583 13 22.3264V19.5C13 18.6716 13.6716 18 14.5 18H17.5C18.3284 18 19 18.6716 19 19.5V22.3264C18.0907 22.7583 17.0736 23 16 23ZM16 16C17.6569 16 19 14.6569 19 13C19 11.3431 17.6569 10 16 10C14.3431 10 13 11.3431 13 13C13 14.6569 14.3431 16 16 16ZM16 15C14.8954 15 14 14.1046 14 13C14 11.8954 14.8954 11 16 11C17.1046 11 18 11.8954 18 13C18 14.1046 17.1046 15 16 15Z" fill="#333333"/>
</svg>

<svg xmlns="http://www.w3.org/2000/svg" width="32" height="32" fill="none"><rect width="32" height="32" fill="#F2F3F4" rx="16"/><path fill="#333" fill-rule="evenodd" d="M24 16a8 8 0 11-16 0 8 8 0 0116 0zM9 16a6.992 6.992 0 003 5.745V19.5a2.5 2.5 0 012.5-2.5h3a2.5 2.5 0 012.5 2.5v2.245A7 7 0 109 16zm7 7a6.973 6.973 0 01-3-.674V19.5a1.5 1.5 0 011.5-1.5h3a1.5 1.5 0 011.5 1.5v2.826A6.973 6.973 0 0116 23zm0-7a3 3 0 100-6 3 3 0 000 6zm0-1a2 2 0 110-4 2 2 0 010 4z" clip-rule="evenodd"/></svg>
